packages/kaspersky-hexa-ui-icons/src/iconsSVGs/24/Splitscreen.svg

<svg width="24" height="24" viewBox="0 0 24 24" fill="none" xmlns="http://www.w3.org/2000/svg">
<path fill-rule="evenodd" clip-rule="evenodd" d="M5 4C3.34315 4 2 5.34315 2 7V17C2 18.6569 3.34315 20 5 20H19C20.6569 20 22 18.6569 22 17V7C22 5.34315 20.6569 4 19 4H5ZM4 7C4 6.44772 4.44772 6 5 6H13V18H5C4.44772 18 4 17.5523 4 17V7ZM15 18H19C19.5523 18 20 17.5523 20 17V7C20 6.44772 19.5523 6 19 6H15V18Z" fill="black"/>
</svg>

<svg xmlns="http://www.w3.org/2000/svg" width="24" height="24" fill="none" viewBox="0 0 24 24"><path fill="#000" fill-rule="evenodd" d="M5 4C3.3432 4 2 5.3431 2 7v10c0 1.6569 1.3432 3 3 3h14c1.6569 0 3-1.3431 3-3V7c0-1.6569-1.3431-3-3-3zM4 7c0-.5523.4477-1 1-1h8v12H5c-.5523 0-1-.4477-1-1zm11 11h4c.5523 0 1-.4477 1-1V7c0-.5523-.4477-1-1-1h-4z"/></svg>
